public/img/ui/courses/chest.svg

<?xml version="1.0" encoding="UTF-8"?>
<svg viewBox="0 0 100 100" xmlns="http://www.w3.org/2000/svg">
    <g>
        <path
            d="m50 100c-27.57 0-50-22.43-50-50s22.43-50 50-50 50 22.43 50 50-22.43 50-50 50zm0-98c-26.47 0-48 21.53-48 48s21.53 48 48 48 48-21.53 48-48-21.53-48-48-48z"
            fill="#000"/>
        <path
            d="m81 33.1328c0-6.1385-4.9943-11.1328-11.1328-11.1328h-37.7344c-6.1385 0-11.1328 4.9943-11.1328 11.1328v.5756l9.5178 12.9666c-.1238.0933-.265.1609-.4153.1988-2.9648.7449-5.3012 2.9725-6.2197 5.8293h-2.8828v29.2969h60v-29.2969h-2.8836c-.973-3.0154-3.5284-5.2899-6.6299-5.9179l9.5135-13.0807zm-48.8672-7.6172h37.7344c3.5955 0 6.6145 2.5046 7.4103 5.8594h-52.5553c.7961-3.3553 3.8151-5.8594 7.4106-5.8594zm15.9375 30.7032h5.8594v7.0312h-5.8594zm26.2119-3.5157h-46.5678c.3546-.5973.8238-1.1185 1.3807-1.5337.5568-.4152 1.1903-.7161 1.864-.8855 1.583-.3977 2.8663-1.6182 3.3497-3.1845.82-2.658 2.4928-4.0056 4.9724-4.0056 1.0288 0 2.0249.2962 2.8803.8565 1.604 1.0496 3.7705.8294 5.1515-.5233.9913-.9705 2.3004-1.5051 3.687-1.5051 1.7065 0 3.3157.8331 4.3044 2.2287 1.0393 1.4667 2.9092 2.0823 4.6513 1.5315.5146-.1628 1.0513-.2453 1.5912-.2446 1.8581 0 3.5998.9965 4.545 2.6001.7595 1.2884 2.1534 2.0878 3.6376 2.0874h.0205c1.904 0 3.6042 1.0257 4.5322 2.5781z"
            fill="#ff2d20"/>
        <path
            d="m81 33.1328c0-6.1385-4.9943-11.1328-11.1328-11.1328h-37.7344c-6.1385 0-11.1328 4.9943-11.1328 11.1328v.5756l9.5178 12.9666c-.1238.0933-.265.1609-.4153.1988-2.9648.7449-5.3012 2.9725-6.2197 5.8293h-2.8828v29.2969h60v-29.2969h-2.8836c-.973-3.0154-3.5284-5.2899-6.6299-5.9179l9.5135-13.0807zm-48.8672-7.6172h37.7344c3.5955 0 6.6145 2.5046 7.4103 5.8594h-52.5553c.7961-3.3553 3.8151-5.8594 7.4106-5.8594zm15.9375 30.7032h5.8594v7.0312h-5.8594zm26.2119-3.5157h-46.5678c.3546-.5973.8238-1.1185 1.3807-1.5337.5568-.4152 1.1903-.7161 1.864-.8855 1.583-.3977 2.8663-1.6182 3.3497-3.1845.82-2.658 2.4928-4.0056 4.9724-4.0056 1.0288 0 2.0249.2962 2.8803.8565 1.604 1.0496 3.7705.8294 5.1515-.5233.9913-.9705 2.3004-1.5051 3.687-1.5051 1.7065 0 3.3157.8331 4.3044 2.2287 1.0393 1.4667 2.9092 2.0823 4.6513 1.5315.5146-.1628 1.0513-.2453 1.5912-.2446 1.8581 0 3.5998.9965 4.545 2.6001.7595 1.2884 2.1534 2.0878 3.6376 2.0874h.0205c1.904 0 3.6042 1.0257 4.5322 2.5781z"
            fill="#ff2d20"/>
        <path clip-rule="evenodd"
              d="m18 32.7879v-1.2026c0-6.9411 5.6442-12.5853 12.5853-12.5853h35.8786c6.9411 0 12.5853 5.6442 12.5853 12.5853v1.194l-7.8696 10.8203c1.9226 1.0167 3.4985 2.6226 4.4696 4.5935h3.4v31.8561h-61.0492v-31.8561h3.3971c.9705-1.978 2.5531-3.6041 4.5153-4.6258zm11.0497 11.6736c-.0076.0057-.0154.0114-.0231.017-.1121.08-.2381.1383-.3718.172-.5372.1349-1.0528.3211-1.5415.5529-2.0753.9844-3.6654 2.7911-4.3723 4.9897h-2.741v27.8561h57.0492v-27.8561h-2.7418c-.7072-2.1916-2.2936-3.9717-4.3191-4.9555-.6242-.3032-1.29-.5307-1.9847-.6714l9.0456-12.4373v-.5436c0-5.8366-4.7487-10.5853-10.5853-10.5853h-35.8786c-5.8366 0-10.5853 4.7487-10.5853 10.5853v.5473zm5.5156.9933c-.3247 1.052-.9102 1.99-1.6794 2.7383h29.4275c-.452-.4065-.8457-.8838-1.162-1.4204-.54-.9161-1.5417-1.4879-2.5986-1.4879h-.0028c-.3077-.0004-.6136.0466-.9069.1394-2.4664.7798-5.1554-.0867-6.6576-2.2067-.5662-.7991-1.4886-1.2754-2.4609-1.2754-.7945 0-1.537.3029-2.1062.8599m21.5155 7.3911h-41.5497c.3371-.5679.7833-1.0635 1.3127-1.4583.2858-.213.5928-.3945.9156-.5417.2753-.1255.562-.2261.8568-.3002 1.5052-.3781 2.7253-1.5386 3.1849-3.0279.7797-2.5273 2.3702-3.8086 4.728-3.8086.9781 0 1.9252.2816 2.7386.8144 1.5251.9979 3.585.7886 4.8981-.4976m1.3995 1.4288c-1.9756 1.9348-5.0721 2.2608-7.3927.7424-.4857-.3181-1.0523-.488-1.6435-.488-.7982 0-1.3216.2083-1.7011.514-.3987.3212-.8086.8887-1.1158 1.8844m33.3686 4.7383h2.7279c-.5238-.8762-1.3063-1.5759-2.2346-2-.6354-.2902-1.3391-.4513-2.0747-.4513h-.0196c-1.4111.0004-2.7364-.7597-3.4587-1.9848-.8987-1.5247-2.5547-2.4722-4.3214-2.4722-.5133-.0007-1.0236.0778-1.513.2326m9.4241-17.1747h-35.8786c-1.4594 0-2.7841.6016-3.7367 1.5712h43.3517c-.9525-.9695-2.2772-1.5712-3.7364-1.5712zm6.2393 1.5712c-1.2606-2.1353-3.5847-3.5712-6.2393-3.5712h-35.8786c-2.6547 0-4.9789 1.4357-6.2395 3.5712-.3628.6146-.6375 1.2871-.8067 2h49.9706c-.1691-.7129-.4438-1.3854-.8065-2zm-23.393 27.622v2.6854h-1.5712v-2.6854zm2-2h-5.5712v6.6854h5.5712z"
              fill="#000" fill-rule="evenodd"/>
    </g>
</svg>

<svg width="100" height="100" viewBox="0 0 100 100" fill="none" xmlns="http://www.w3.org/2000/svg">
<g clip-path="url(#clip0_871_364)">
<path d="M50 100C22.43 100 0 77.57 0 50C0 22.43 22.43 0 50 0C77.57 0 100 22.43 100 50C100 77.57 77.57 100 50 100ZM50 2C23.53 2 2 23.53 2 50C2 76.47 23.53 98 50 98C76.47 98 98 76.47 98 50C98 23.53 76.47 2 50 2Z" fill="black"/>
<path d="M81 33.1328C81 26.9943 76.0057 22 69.8672 22H32.1328C25.9943 22 21 26.9943 21 33.1328V33.7084L30.5178 46.675C30.394 46.7683 30.2528 46.8359 30.1025 46.8738C27.1377 47.6187 24.8013 49.8463 23.8828 52.7031H21V82H81V52.7031H78.1164C77.1434 49.6877 74.588 47.4132 71.4865 46.7852L81 33.7045V33.1328ZM32.1328 25.5156H69.8672C73.4627 25.5156 76.4817 28.0202 77.2775 31.375H24.7222C25.5183 28.0197 28.5373 25.5156 32.1328 25.5156ZM48.0703 56.2188H53.9297V63.25H48.0703V56.2188ZM74.2822 52.7031H27.7144C28.069 52.1058 28.5382 51.5846 29.0951 51.1694C29.6519 50.7542 30.2854 50.4533 30.9591 50.2839C32.5421 49.8862 33.8254 48.6657 34.3088 47.0994C35.1288 44.4414 36.8016 43.0938 39.2812 43.0938C40.31 43.0938 41.3061 43.39 42.1615 43.9503C43.7655 44.9999 45.932 44.7797 47.313 43.427C48.3043 42.4565 49.6134 41.9219 51 41.9219C52.7065 41.9219 54.3157 42.755 55.3044 44.1506C56.3437 45.6173 58.2136 46.2329 59.9557 45.6821C60.4703 45.5193 61.007 45.4368 61.5469 45.4375C63.405 45.4375 65.1467 46.434 66.0919 48.0376C66.8514 49.326 68.2453 50.1254 69.7295 50.125H69.75C71.654 50.125 73.3542 51.1507 74.2822 52.7031Z" fill="#FF2D20"/>
<path d="M81 33.1328C81 26.9943 76.0057 22 69.8672 22H32.1328C25.9943 22 21 26.9943 21 33.1328V33.7084L30.5178 46.675C30.394 46.7683 30.2528 46.8359 30.1025 46.8738C27.1377 47.6187 24.8013 49.8463 23.8828 52.7031H21V82H81V52.7031H78.1164C77.1434 49.6877 74.588 47.4132 71.4865 46.7852L81 33.7045V33.1328ZM32.1328 25.5156H69.8672C73.4627 25.5156 76.4817 28.0202 77.2775 31.375H24.7222C25.5183 28.0197 28.5373 25.5156 32.1328 25.5156ZM48.0703 56.2188H53.9297V63.25H48.0703V56.2188ZM74.2822 52.7031H27.7144C28.069 52.1058 28.5382 51.5846 29.0951 51.1694C29.6519 50.7542 30.2854 50.4533 30.9591 50.2839C32.5421 49.8862 33.8254 48.6657 34.3088 47.0994C35.1288 44.4414 36.8016 43.0938 39.2812 43.0938C40.31 43.0938 41.3061 43.39 42.1615 43.9503C43.7655 44.9999 45.932 44.7797 47.313 43.427C48.3043 42.4565 49.6134 41.9219 51 41.9219C52.7065 41.9219 54.3157 42.755 55.3044 44.1506C56.3437 45.6173 58.2136 46.2329 59.9557 45.6821C60.4703 45.5193 61.007 45.4368 61.5469 45.4375C63.405 45.4375 65.1467 46.434 66.0919 48.0376C66.8514 49.326 68.2453 50.1254 69.7295 50.125H69.75C71.654 50.125 73.3542 51.1507 74.2822 52.7031Z" fill="#FF2D20"/>
<path fill-rule="evenodd" clip-rule="evenodd" d="M18 32.7879V31.5853C18 24.6442 23.6442 19 30.5853 19H66.4639C73.405 19 79.0492 24.6442 79.0492 31.5853V32.7793L71.1796 43.5996C73.1022 44.6163 74.6781 46.2222 75.6492 48.1931H79.0492V80.0492H18V48.1931H21.3971C22.3676 46.2151 23.9502 44.589 25.9124 43.5673L18 32.7879ZM29.0497 44.4615C29.0421 44.4672 29.0343 44.4729 29.0266 44.4785C28.9145 44.5585 28.7885 44.6168 28.6548 44.6505C28.1176 44.7854 27.602 44.9716 27.1133 45.2034C25.038 46.1878 23.4479 47.9945 22.741 50.1931H20V78.0492H77.0492V50.1931H74.3074C73.6002 48.0015 72.0138 46.2214 69.9883 45.2376C69.3641 44.9344 68.6983 44.7069 68.0036 44.5662L77.0492 32.1289V31.5853C77.0492 25.7487 72.3005 21 66.4639 21H30.5853C24.7487 21 20 25.7487 20 31.5853V32.1326L29.0497 44.4615ZM34.5653 45.4548C34.2406 46.5068 33.6551 47.4448 32.8859 48.1931H62.3134C61.8614 47.7866 61.4677 47.3093 61.1514 46.7727C60.6114 45.8566 59.6097 45.2848 58.5528 45.2848H58.55C58.2423 45.2844 57.9364 45.3314 57.6431 45.4242C55.1767 46.204 52.4877 45.3375 50.9855 43.2175C50.4193 42.4184 49.4969 41.9421 48.5246 41.9421C47.7301 41.9421 46.9876 42.245 46.4184 42.802M67.9339 50.1931H26.3842C26.7213 49.6252 27.1675 49.1296 27.6969 48.7348C27.9827 48.5218 28.2897 48.3403 28.6125 48.1931C28.8878 48.0676 29.1745 47.967 29.4693 47.8929C30.9745 47.5148 32.1946 46.3543 32.6542 44.865C33.4339 42.3377 35.0244 41.0564 37.3822 41.0564C38.3603 41.0564 39.3074 41.338 40.1208 41.8708C41.6459 42.8687 43.7058 42.6594 45.0189 41.3732M46.4184 42.802C44.4428 44.7368 41.3463 45.0628 39.0257 43.5444C38.54 43.2263 37.9734 43.0564 37.3822 43.0564C36.584 43.0564 36.0606 43.2647 35.6811 43.5704C35.2824 43.8916 34.8725 44.4591 34.5653 45.4548M67.9339 50.1931H70.6618C70.138 49.3169 69.3555 48.6172 68.4272 48.1931C67.7918 47.9029 67.0881 47.7418 66.3525 47.7418H66.3329C64.9218 47.7422 63.5965 46.9821 62.8742 45.757C61.9755 44.2323 60.3195 43.2848 58.5528 43.2848C58.0395 43.2841 57.5292 43.3626 57.0398 43.5174M66.4639 26.3427H30.5853C29.1259 26.3427 27.8012 26.9443 26.8486 27.9139H70.2003C69.2478 26.9444 67.9231 26.3427 66.4639 26.3427ZM72.7032 27.9139C71.4426 25.7786 69.1185 24.3427 66.4639 24.3427H30.5853C27.9306 24.3427 25.6064 25.7784 24.3458 27.9139C23.983 28.5285 23.7083 29.201 23.5391 29.9139H73.5097C73.3406 29.201 73.0659 28.5285 72.7032 27.9139ZM49.3102 55.5359V58.2213H47.739V55.5359H49.3102ZM51.3102 53.5359H45.739V60.2213H51.3102V53.5359Z" fill="black"/>
</g>
<defs>
<clipPath id="clip0_871_364">
<rect width="100" height="100" fill="white"/>
</clipPath>
</defs>
</svg>
